public/turkey.svg

<svg xmlns="http://www.w3.org/2000/svg" xmlns:xlink="http://www.w3.org/1999/xlink" width="898" height="197" fill="none" xmlns:v="https://vecta.io/nano"><g fill="#fff"><path d="M588.65 5.2v30.39h-5.95V5.2H571V0h29.34v5.2h-11.69zm12.5 20.55V10.2h5.7v15.05c0 4.55 1.95 6.35 5.15 6.35 3.25 0 5.8-2.45 5.8-7.3V10.2h5.7v25.39h-5.4v-3.3h-.1c-1.6 2.3-4.25 3.9-7.6 3.9-5.75.01-9.25-3.49-9.25-10.44zm44.4-15.65v5.05c-.7-.15-1.35-.2-2-.2-4.55 0-7.05 2.9-7.05 8.2V35.6h-5.7V10.21h5.3v3.75h.1c1.7-2.75 4.1-4.1 7.25-4.1.65-.01 1.45.09 2.1.24zm19.8 25.5l-9.9-12.3h-.1v12.3h-5.7V.01h5.7V20.6h.1l9.25-10.4h6.65l-10.5 11.6 11.7 13.8h-7.2zm9.9-30.15V0h5.7v5.45h-5.7zm0 30.15V10.21h5.7V35.6h-5.7zm32.04-17.5h-5.5c0-3.05-1.8-4.5-4.85-4.5-2.65 0-4.2 1.15-4.2 3 0 2.2 1.75 2.65 5.75 3.65 4.65 1.2 9.6 2.3 9.6 8.35 0 4.6-4.1 7.75-10.65 7.75-6.8 0-10.95-3.05-11-9.1h5.8c0 3.1 1.9 4.85 5.3 4.85 2.9 0 4.6-1.25 4.6-3.15 0-2.6-2-3.1-6.4-4.2-4.25-1.05-8.7-2-8.7-7.7 0-4.5 4-7.6 9.95-7.6 6.46 0 10.25 3 10.3 8.65zm12.21-4.9c1.8-2.45 4.45-3.6 7.3-3.6 5.75 0 9.25 3.5 9.25 10.45V35.6h-5.7V20.55c0-4.55-1.95-6.35-5.15-6.35-3.25 0-5.8 2.45-5.8 7.3v14.1h-5.7V.01h5.7v13.2h.1v-.01zM598.34 70.95h-6.05c0-4.5-2.55-6.8-7.15-6.8-3.85 0-6.25 1.85-6.25 4.75 0 3.25 2.45 4.25 8.15 5.65 6.7 1.65 12.3 3.4 12.3 10.9 0 6.6-5.3 10.9-13.3 10.9-8.6 0-13.85-4.35-13.85-12.5h6.15c0 5.1 2.8 7.55 7.75 7.55 4.45 0 7.05-2.05 7.05-5.4 0-3.6-2.6-4.4-8.05-5.75-6.75-1.7-12.35-3.35-12.35-10.8 0-6.05 4.95-10.2 12.5-10.2 8.66.01 13.1 4.05 13.1 11.7zm30.6 11.95c0 8.1-4.1 13.3-10.55 13.3-3.15 0-6-1.45-7.45-3.9h-.1v12.55h-5.7V70.21h5.55v3.5h.1c1.5-2.6 4.35-4.15 7.55-4.15 6.45-.01 10.6 5.24 10.6 13.34zm-18.39 0c0 5.5 2.45 8.9 6.15 8.9 3.85 0 6.3-3.5 6.3-8.9s-2.45-8.9-6.3-8.9c-3.7 0-6.15 3.35-6.15 8.9zm43.9-3.5v9.5c0 3 .25 5.1.65 6.7h-5.15c-.25-1.1-.35-2.35-.35-3.55h-.1c-1.85 2.7-4.7 4.1-8.55 4.1-5.3 0-8.6-3.2-8.6-7.55 0-4.15 2.45-6.85 9.75-8 2.05-.35 5.05-.65 6.85-.75v-1c0-3.75-2.05-5.25-4.95-5.25-3.15 0-4.85 1.75-5 4.45h-5.6c.25-4.8 3.75-8.6 10.6-8.6 6.7 0 10.45 3.3 10.45 9.95zm-5.5 4.15c-1.7.1-4.15.35-5.85.65-3.65.6-5 1.7-5 4 0 2.25 1.6 3.75 4.5 3.75 1.75 0 3.45-.55 4.6-1.7 1.35-1.4 1.75-2.75 1.75-5.45v-1.25z"/><use xlink:href="#B"/><path d="M705.54 87.95h5.85c-.95 4.55-5.05 8.4-11.7 8.4-7.75 0-12.3-5.55-12.3-13.75 0-7.5 4.5-13.15 12.2-13.15 5.8 0 10 3.35 11.4 8.65.5 1.6.7 3.5.7 5.95h-18.65c.2 5.75 3.1 8.1 6.65 8.1 3.25 0 5.35-1.75 5.85-4.2zm-12.39-7.65H706c-.4-4.45-3-6.65-6.4-6.65-3.45 0-5.95 2.25-6.45 6.65zm41.75 5.65l-3.3 9.65h-6.3l12.95-35.59h8.05l12.95 35.59h-6.3l-3.3-9.65H734.9zm11.99-8l-4.6-14.15h-.1l-4.55 14.15-.95 2.8h11.15l-.95-2.8zm32.25-4.2h.1V70.2h5.4v23.79c0 7.6-4.4 11.25-11.55 11.25-6.8 0-10.65-3.05-10.9-8.05h5.7c.15 2.45 2.1 3.85 5.3 3.85 3.8 0 5.9-1.95 5.9-7.25v-2.5h-.1c-1.85 2.7-4.2 4-7.35 4-6.45 0-10.55-5-10.55-12.9 0-7.85 4.15-12.9 10.65-12.9 3.16.01 5.51 1.36 7.4 4.26zm-12.09 8.65c0 5 2.35 8.2 6 8.2 3.85 0 6.25-3.2 6.25-8.2 0-4.95-2.4-8.15-6.25-8.15-3.65 0-6 3.15-6 8.15zm41.29 5.55h5.85c-.95 4.55-5.05 8.4-11.7 8.4-7.75 0-12.3-5.55-12.3-13.75 0-7.5 4.5-13.15 12.2-13.15 5.8 0 10 3.35 11.4 8.65.5 1.6.7 3.5.7 5.95h-18.65c.2 5.75 3.1 8.1 6.65 8.1 3.25 0 5.35-1.75 5.85-4.2zm-12.39-7.65h12.84c-.4-4.45-3-6.65-6.4-6.65-3.44 0-5.94 2.25-6.44 6.65zm46.44-.25V95.6h-5.7V80.55c0-4.55-1.95-6.35-5.15-6.35-3.25 0-5.8 2.45-5.8 7.3v14.1h-5.7V70.21h5.4v3.3h.1c1.6-2.3 4.25-3.9 7.6-3.9 5.75-.01 9.25 3.49 9.25 10.44z"/><use xlink:href="#B" x="188"/><path d="M887.49 96.7c-2.4 6.45-5.2 8.4-11.1 8.4-1.1 0-2.1-.15-2.85-.35v-4.65c.65.2 1.5.35 2.4.35 3.1 0 4.45-1.15 5.65-4.65l-9.3-25.59h6.1l6.35 18.9h.1l6.55-18.9h5.9l-9.8 26.49z"/></g><g fill="#e1251b"><path d="M321.22 113.98c-3.75 25.68-21.14 40.67-48.13 40.67-30.63 0-48.91-19.3-48.91-51.61V.59H0v47.22h59.19v142.08h59.03V47.81h46.94v61.18c0 55.54 39.34 87.39 107.94 87.39 58.28 0 95.43-23 105.29-63.98l-55.87-17.99-.39-.13-.91-.3z"/><path d="M430.38 0H321.22v113.98l59.55-19.35V32.55l36.49 50.22 59.04-19.18L430.38 0z"/><path d="M499.14 94.65L476.3 63.59l-36.49 50.22 54.85 75.49h73.25l-68.77-94.65z"/></g><defs ><path id="B" d="M683.49 79.4h-5.95c-.25-3.3-2.4-5.45-5.5-5.45-4 0-6.35 3.4-6.35 8.95s2.35 8.95 6.35 8.95c3.1 0 5.2-2.45 5.45-5.9h6c-.5 6.15-4.9 10.4-11.45 10.4-7.5 0-12.35-5.2-12.35-13.45s4.85-13.45 12.35-13.45c6.5 0 10.95 4.15 11.45 9.95z"/></defs></svg>

<svg width="898" height="197" viewBox="0 0 898 197" fill="none" xmlns="http://www.w3.org/2000/svg">
<path d="M588.65 5.2V35.59H582.7V5.2H571V0H600.34V5.2H588.65Z" fill="white"/>
<path d="M601.15 25.75V10.2H606.85V25.25C606.85 29.8 608.8 31.6 612 31.6C615.25 31.6 617.8 29.15 617.8 24.3V10.2H623.5V35.59H618.1V32.29H618C616.4 34.59 613.75 36.19 610.4 36.19C604.65 36.2 601.15 32.7 601.15 25.75Z" fill="white"/>
<path d="M645.55 10.1V15.15C644.85 15 644.2 14.95 643.55 14.95C639 14.95 636.5 17.85 636.5 23.15V35.6H630.8V10.21H636.1V13.96H636.2C637.9 11.21 640.3 9.86 643.45 9.86C644.1 9.85 644.9 9.94999 645.55 10.1Z" fill="white"/>
<path d="M665.35 35.6L655.45 23.3H655.35V35.6H649.65V0.00999451H655.35V20.6H655.45L664.7 10.2H671.35L660.85 21.8L672.55 35.6H665.35Z" fill="white"/>
<path d="M675.25 5.45V0H680.95V5.45H675.25ZM675.25 35.6V10.21H680.95V35.6H675.25Z" fill="white"/>
<path d="M707.29 18.1H701.79C701.79 15.05 699.99 13.6 696.94 13.6C694.29 13.6 692.74 14.75 692.74 16.6C692.74 18.8 694.49 19.25 698.49 20.25C703.14 21.45 708.09 22.55 708.09 28.6C708.09 33.2 703.99 36.35 697.44 36.35C690.64 36.35 686.49 33.3 686.44 27.25H692.24C692.24 30.35 694.14 32.1 697.54 32.1C700.44 32.1 702.14 30.85 702.14 28.95C702.14 26.35 700.14 25.85 695.74 24.75C691.49 23.7 687.04 22.75 687.04 17.05C687.04 12.55 691.04 9.45 696.99 9.45C703.45 9.45 707.24 12.45 707.29 18.1Z" fill="white"/>
<path d="M719.5 13.2C721.3 10.75 723.95 9.59999 726.8 9.59999C732.55 9.59999 736.05 13.1 736.05 20.05V35.6H730.35V20.55C730.35 16 728.4 14.2 725.2 14.2C721.95 14.2 719.4 16.65 719.4 21.5V35.6H713.7V0.00999451H719.4V13.21H719.5V13.2Z" fill="white"/>
<path d="M598.34 70.95H592.29C592.29 66.45 589.74 64.15 585.14 64.15C581.29 64.15 578.89 66 578.89 68.9C578.89 72.15 581.34 73.15 587.04 74.55C593.74 76.2 599.34 77.95 599.34 85.45C599.34 92.05 594.04 96.35 586.04 96.35C577.44 96.35 572.19 92 572.19 83.85H578.34C578.34 88.95 581.14 91.4 586.09 91.4C590.54 91.4 593.14 89.35 593.14 86C593.14 82.4 590.54 81.6 585.09 80.25C578.34 78.55 572.74 76.9 572.74 69.45C572.74 63.4 577.69 59.25 585.24 59.25C593.9 59.26 598.34 63.3 598.34 70.95Z" fill="white"/>
<path d="M628.94 82.9C628.94 91 624.84 96.2 618.39 96.2C615.24 96.2 612.39 94.75 610.94 92.3H610.84V104.85H605.14V70.21H610.69V73.71H610.79C612.29 71.11 615.14 69.56 618.34 69.56C624.79 69.55 628.94 74.8 628.94 82.9ZM610.55 82.9C610.55 88.4 613 91.8 616.7 91.8C620.55 91.8 623 88.3 623 82.9C623 77.5 620.55 74 616.7 74C613 74 610.55 77.35 610.55 82.9Z" fill="white"/>
<path d="M654.45 79.4V88.9C654.45 91.9 654.7 94 655.1 95.6H649.95C649.7 94.5 649.6 93.25 649.6 92.05H649.5C647.65 94.75 644.8 96.15 640.95 96.15C635.65 96.15 632.35 92.95 632.35 88.6C632.35 84.45 634.8 81.75 642.1 80.6C644.15 80.25 647.15 79.95 648.95 79.85V78.85C648.95 75.1 646.9 73.6 644 73.6C640.85 73.6 639.15 75.35 639 78.05H633.4C633.65 73.25 637.15 69.45 644 69.45C650.7 69.45 654.45 72.75 654.45 79.4ZM648.95 83.55C647.25 83.65 644.8 83.9 643.1 84.2C639.45 84.8 638.1 85.9 638.1 88.2C638.1 90.45 639.7 91.95 642.6 91.95C644.35 91.95 646.05 91.4 647.2 90.25C648.55 88.85 648.95 87.5 648.95 84.8V83.55Z" fill="white"/>
<path d="M683.49 79.4H677.54C677.29 76.1 675.14 73.95 672.04 73.95C668.04 73.95 665.69 77.35 665.69 82.9C665.69 88.45 668.04 91.85 672.04 91.85C675.14 91.85 677.24 89.4 677.49 85.95H683.49C682.99 92.1 678.59 96.35 672.04 96.35C664.54 96.35 659.69 91.15 659.69 82.9C659.69 74.65 664.54 69.45 672.04 69.45C678.54 69.45 682.99 73.6 683.49 79.4Z" fill="white"/>
<path d="M705.54 87.95H711.39C710.44 92.5 706.34 96.35 699.69 96.35C691.94 96.35 687.39 90.8 687.39 82.6C687.39 75.1 691.89 69.45 699.59 69.45C705.39 69.45 709.59 72.8 710.99 78.1C711.49 79.7 711.69 81.6 711.69 84.05H693.04C693.24 89.8 696.14 92.15 699.69 92.15C702.94 92.15 705.04 90.4 705.54 87.95ZM693.15 80.3H706C705.6 75.85 703 73.65 699.6 73.65C696.15 73.65 693.65 75.9 693.15 80.3Z" fill="white"/>
<path d="M734.9 85.95L731.6 95.6H725.3L738.25 60.01H746.3L759.25 95.6H752.95L749.65 85.95H734.9ZM746.89 77.95C745.29 73.2 743.74 68.55 742.29 63.8H742.19C740.74 68.55 739.29 73.2 737.64 77.95L736.69 80.75H747.84L746.89 77.95Z" fill="white"/>
<path d="M779.14 73.75H779.24V70.2H784.64V93.99C784.64 101.59 780.24 105.24 773.09 105.24C766.29 105.24 762.44 102.19 762.19 97.19H767.89C768.04 99.64 769.99 101.04 773.19 101.04C776.99 101.04 779.09 99.09 779.09 93.79V91.29H778.99C777.14 93.99 774.79 95.29 771.64 95.29C765.19 95.29 761.09 90.29 761.09 82.39C761.09 74.54 765.24 69.49 771.74 69.49C774.9 69.5 777.25 70.85 779.14 73.75ZM767.05 82.4C767.05 87.4 769.4 90.6 773.05 90.6C776.9 90.6 779.3 87.4 779.3 82.4C779.3 77.45 776.9 74.25 773.05 74.25C769.4 74.25 767.05 77.4 767.05 82.4Z" fill="white"/>
<path d="M808.34 87.95H814.19C813.24 92.5 809.14 96.35 802.49 96.35C794.74 96.35 790.19 90.8 790.19 82.6C790.19 75.1 794.69 69.45 802.39 69.45C808.19 69.45 812.39 72.8 813.79 78.1C814.29 79.7 814.49 81.6 814.49 84.05H795.84C796.04 89.8 798.94 92.15 802.49 92.15C805.74 92.15 807.84 90.4 808.34 87.95ZM795.95 80.3H808.79C808.39 75.85 805.79 73.65 802.39 73.65C798.95 73.65 796.45 75.9 795.95 80.3Z" fill="white"/>
<path d="M842.39 80.05V95.6H836.69V80.55C836.69 76 834.74 74.2 831.54 74.2C828.29 74.2 825.74 76.65 825.74 81.5V95.6H820.04V70.21H825.44V73.51H825.54C827.14 71.21 829.79 69.61 833.14 69.61C838.89 69.6 842.39 73.1 842.39 80.05Z" fill="white"/>
<path d="M871.49 79.4H865.54C865.29 76.1 863.14 73.95 860.04 73.95C856.04 73.95 853.69 77.35 853.69 82.9C853.69 88.45 856.04 91.85 860.04 91.85C863.14 91.85 865.24 89.4 865.49 85.95H871.49C870.99 92.1 866.59 96.35 860.04 96.35C852.54 96.35 847.69 91.15 847.69 82.9C847.69 74.65 852.54 69.45 860.04 69.45C866.54 69.45 870.99 73.6 871.49 79.4Z" fill="white"/>
<path d="M887.49 96.7C885.09 103.15 882.29 105.1 876.39 105.1C875.29 105.1 874.29 104.95 873.54 104.75V100.1C874.19 100.3 875.04 100.45 875.94 100.45C879.04 100.45 880.39 99.3 881.59 95.8L872.29 70.21H878.39L884.74 89.11H884.84L891.39 70.21H897.29L887.49 96.7Z" fill="white"/>
<path d="M321.22 113.98C317.47 139.66 300.08 154.65 273.09 154.65C242.46 154.65 224.18 135.35 224.18 103.04V0.59H0V47.81H59.19V189.89H118.22V47.81H165.16V108.99C165.16 164.53 204.5 196.38 273.1 196.38C331.38 196.38 368.53 173.38 378.39 132.4L322.52 114.41L322.13 114.28L321.22 113.98Z" fill="#E1251B"/>
<path d="M430.38 0H321.22V113.98L380.77 94.63V32.55L417.26 82.77L476.3 63.59L430.38 0Z" fill="#E1251B"/>
<path d="M499.14 94.65L476.3 63.59L439.81 113.81L494.66 189.3H567.91L499.14 94.65Z" fill="#E1251B"/>
</svg>
